X: 40351
T: Tom Carroll's
R: polka
M: 2/4
K: Gmajor
|:BG GF|DG GF/G/|AD FG|AB c2|
BG GF|DG GF/G/|Ad cA|1 G2 GA:|2 G2 GB||
|:dg gf|ga gf|de ce|AB c2|
dg gf|gb ag|fd cA|1 G2 GB:|2 G2 GA||

